img/advantages_icon-3.svg

<svg width="100" height="100" viewBox="0 0 100 100" fill="none" xmlns="http://www.w3.org/2000/svg">
<g clip-path="url(#clip0_143_2)">
<path d="M100 30.4C100 24.24 89.77 19 72.6 16.34L67.68 4.27999C67.0681 2.75808 65.9296 1.50675 64.4721 0.754145C63.0146 0.00153816 61.3352 -0.202228 59.74 0.179987C53.32 1.5599 46.68 1.5599 40.26 0.179987C38.6648 -0.202228 36.9854 0.00153816 35.5279 0.754145C34.0704 1.50675 32.9319 2.75808 32.32 4.27999L27.4 16.34C10.23 19 0 24.24 0 30.4C0 36.56 9.85001 41.1 23.2 43.69L10.2 54.12C10.0866 54.212 9.99468 54.3277 9.93076 54.459C9.86683 54.5903 9.83243 54.734 9.82999 54.88C9.82705 55.0278 9.85693 55.1744 9.91745 55.3093C9.97797 55.4442 10.0676 55.5639 10.18 55.66L20.5 64.5L15.11 68.82C14.9947 68.911 14.9009 69.0263 14.8353 69.1576C14.7696 69.289 14.7337 69.4332 14.73 69.58C14.7271 69.7278 14.7569 69.8744 14.8174 70.0093C14.878 70.1441 14.9676 70.2639 15.08 70.36L49.38 99.76C49.5611 99.9149 49.7916 100 50.03 100C50.2684 100 50.4989 99.9149 50.68 99.76L84.98 70.36C85.0923 70.2639 85.182 70.1441 85.2426 70.0093C85.3031 69.8744 85.333 69.7278 85.33 69.58C85.3264 69.4332 85.2904 69.289 85.2247 69.1576C85.1591 69.0263 85.0653 68.911 84.95 68.82L79.56 64.5L89.88 55.66C89.9924 55.5639 90.0821 55.4442 90.1426 55.3093C90.2031 55.1744 90.2329 55.0278 90.23 54.88C90.2275 54.734 90.1932 54.5903 90.1293 54.459C90.0654 54.3277 89.9734 54.212 89.86 54.12L76.86 43.69C90.15 41.1 100 36.52 100 30.4ZM34.17 4.99999C34.5363 4.10883 35.1602 3.34725 35.9619 2.8128C36.7636 2.27835 37.7065 1.99534 38.67 1.99999C39.0504 1.99931 39.4296 2.04295 39.8 2.13C46.5227 3.57995 53.4773 3.57995 60.2 2.13C61.3314 1.85916 62.5225 2.00404 63.556 2.53823C64.5895 3.07243 65.3966 3.96034 65.83 5.04L74.83 27.23C74.9953 27.6679 75.0018 28.1499 74.8483 28.5921C74.6948 29.0343 74.3911 29.4087 73.99 29.65C68.67 32.85 59.69 34.75 49.99 34.75C40.29 34.75 31.27 32.85 25.99 29.65C25.5824 29.4178 25.2733 29.045 25.1205 28.6015C24.9678 28.1579 24.9818 27.6739 25.16 27.24L34.17 4.99999ZM77.32 63.73C77.2076 63.826 77.118 63.9458 77.0574 64.0807C76.9969 64.2156 76.967 64.3622 76.97 64.51C76.9724 64.656 77.0068 64.7997 77.0707 64.931C77.1347 65.0623 77.2266 65.178 77.34 65.27L82.73 69.59L50 97.59L17.27 69.59L22.66 65.27C22.7732 65.1762 22.8644 65.0585 22.9269 64.9254C22.9895 64.7923 23.0219 64.6471 23.0219 64.5C23.0219 64.3529 22.9895 64.2077 22.9269 64.0746C22.8644 63.9415 22.7732 63.8238 22.66 63.73L12.34 54.89L24.86 44.89C26.86 57.94 37.1 75.49 49.97 75.49C63.04 75.49 73.06 58.19 75.09 44.9L87.6 54.9L77.32 63.73ZM26.82 44.28C42.1822 46.6533 57.8178 46.6533 73.18 44.28C71.39 56.66 61.9 73.5 50 73.5C38.1 73.5 28.61 56.67 26.82 44.32V44.28ZM50 44.1C21.29 44.1 2 37.02 2 30.4C2 25.66 11.78 20.96 26.52 18.51L23.27 26.51C22.9243 27.3898 22.9013 28.3636 23.2052 29.2588C23.509 30.1539 24.1201 30.9125 24.93 31.4C30.54 34.77 39.93 36.78 50 36.78C60.07 36.78 69.46 34.78 75.07 31.4C75.8799 30.9125 76.491 30.1539 76.7949 29.2588C77.0987 28.3636 77.0757 27.3898 76.73 26.51L73.48 18.51C88.22 21 98 25.66 98 30.4C98 37 78.71 44.1 50 44.1Z" fill="url(#paint0_linear_143_2)"/>
</g>
<defs>
<linearGradient id="paint0_linear_143_2" x1="30.84" y1="3.44999" x2="77.51" y2="84.27" gradientUnits="userSpaceOnUse">
<stop stop-color="#26E8D2"/>
<stop offset="1" stop-color="#4E32E7"/>
</linearGradient>
<clipPath id="clip0_143_2">
<rect width="100" height="100" fill="white"/>
</clipPath>
</defs>
</svg>

<svg width="100" height="100" fill="none" xmlns="http://www.w3.org/2000/svg"><g clip-path="url(#clip0_143_2)"><path d="M100 30.4c0-6.16-10.23-11.4-27.4-14.06L67.68 4.28a6.84 6.84 0 00-7.94-4.1 46.35 46.35 0 01-19.48 0 6.84 6.84 0 00-7.94 4.1L27.4 16.34C10.23 19 0 24.24 0 30.4s9.85 10.7 23.2 13.29l-13 10.43a1 1 0 00-.02 1.54L20.5 64.5l-5.39 4.32a.999.999 0 00-.293 1.19c.061.134.15.254.263.35l34.3 29.4a1 1 0 001.3 0l34.3-29.4a1.003 1.003 0 00.35-.78 1 1 0 00-.38-.76l-5.39-4.32 10.32-8.84a1 1 0 00.25-1.201 1 1 0 00-.27-.339l-13-10.43C90.15 41.1 100 36.52 100 30.4zM34.17 5a4.84 4.84 0 014.5-3c.38 0 .76.043 1.13.13a48.38 48.38 0 0020.4 0 4.85 4.85 0 015.63 2.91l9 22.19a2 2 0 01-.84 2.42c-5.32 3.2-14.3 5.1-24 5.1s-18.72-1.9-24-5.1a1.93 1.93 0 01-.83-2.41L34.17 5zm43.15 58.73a1 1 0 00.02 1.54l5.39 4.32-32.73 28-32.73-28 5.39-4.32a1 1 0 000-1.54l-10.32-8.84 12.52-10c2 13.05 12.24 30.6 25.11 30.6 13.07 0 23.09-17.3 25.12-30.59l12.51 10-10.28 8.83zm-50.5-19.45a151.823 151.823 0 0046.36 0C71.39 56.66 61.9 73.5 50 73.5S28.61 56.67 26.82 44.32v-.04zM50 44.1c-28.71 0-48-7.08-48-13.7 0-4.74 9.78-9.44 24.52-11.89l-3.25 8a4 4 0 001.66 4.89c5.61 3.37 15 5.38 25.07 5.38s19.46-2 25.07-5.38a4 4 0 001.66-4.89l-3.25-8C88.22 21 98 25.66 98 30.4c0 6.6-19.29 13.7-48 13.7z" fill="url(#paint0_linear_143_2)"/></g><defs><linearGradient id="paint0_linear_143_2" x1="30.84" y1="3.45" x2="77.51" y2="84.27" gradientUnits="userSpaceOnUse"><stop stop-color="#26E8D2"/><stop offset="1" stop-color="#4E32E7"/></linearGradient><clipPath id="clip0_143_2"><path fill="#fff" d="M0 0h100v100H0z"/></clipPath></defs></svg>
